talent/images/logo-footer.svg

<svg width="346" height="50" viewBox="0 0 346 50" fill="none" xmlns="http://www.w3.org/2000/svg">
<g id="Group 7 Copy">
<path id="Path" d="M130.816 8.19321H119.668C119.13 8.19321 118.62 8.08524 118.142 7.87232C117.664 7.6594 117.247 7.3655 116.893 6.99663C116.536 6.62776 116.257 6.19291 116.052 5.69509C115.848 5.19727 115.744 4.66645 115.744 4.10565C115.744 3.53585 115.848 3.00504 116.052 2.50422C116.257 2.0064 116.539 1.57155 116.893 1.20268C117.247 0.833811 117.664 0.539915 118.142 0.32699C118.62 0.114065 119.13 0.00610352 119.668 0.00610352H130.816V1.17269H119.668C119.28 1.17269 118.914 1.25066 118.574 1.40661C118.234 1.56255 117.938 1.77248 117.682 2.03639C117.428 2.30029 117.227 2.60918 117.083 2.96606C116.936 3.31993 116.864 3.7008 116.864 4.10565C116.864 4.51051 116.936 4.89137 117.083 5.24525C117.23 5.59912 117.428 5.90801 117.682 6.17492C117.935 6.43883 118.232 6.64875 118.574 6.7987C118.914 6.95165 119.28 7.02662 119.668 7.02662H130.816V8.19321Z" fill="white"/>
<path id="Path_2" d="M162.571 8.19303H151.424V7.02345H162.571C162.96 7.02345 163.326 6.94847 163.665 6.79553C164.005 6.64258 164.302 6.43565 164.558 6.17175C164.811 5.90784 165.013 5.59595 165.159 5.24208C165.306 4.8882 165.378 4.50734 165.378 4.10248C165.378 3.69762 165.306 3.31676 165.159 2.96288C165.013 2.60901 164.814 2.30012 164.558 2.03321C164.304 1.7693 164.008 1.55938 163.665 1.40343C163.326 1.24749 162.96 1.16952 162.571 1.16952H151.424V0.00292969H162.571C163.11 0.00292969 163.616 0.110891 164.097 0.323816C164.575 0.536741 164.992 0.830637 165.347 1.19951C165.701 1.56838 165.983 2.00322 166.187 2.50105C166.392 2.99887 166.495 3.53268 166.495 4.10248C166.495 4.66328 166.392 5.19409 166.187 5.69192C165.983 6.18974 165.701 6.62459 165.347 6.99346C164.992 7.36532 164.575 7.65622 164.097 7.86915C163.616 8.08507 163.11 8.19303 162.571 8.19303Z" fill="white"/>
<path id="Shape" fill-rule="evenodd" clip-rule="evenodd" d="M210.385 1.16952H225.459V0.00292969H210.385V1.16952ZM210.385 8.19303H211.505V7.37132C211.505 6.99645 211.571 6.64858 211.706 6.32469C211.842 6.00381 212.026 5.71891 212.262 5.47299C212.498 5.22708 212.774 5.03515 213.088 4.8942C213.402 4.75325 213.739 4.68427 214.099 4.68427H225.459V3.51769H214.099C213.58 3.51769 213.1 3.61965 212.651 3.82058C212.201 4.02451 211.81 4.30041 211.473 4.65128C211.136 5.00216 210.868 5.41002 210.676 5.87785C210.483 6.34569 210.385 6.84351 210.385 7.37432V8.19303Z" fill="white"/>
<path id="Shape_2" fill-rule="evenodd" clip-rule="evenodd" d="M195.696 8.1931H204.624C205.05 8.1931 205.45 8.10913 205.818 7.94119C206.19 7.77325 206.515 7.54233 206.794 7.25143C207.076 6.96054 207.295 6.62166 207.456 6.23479C207.618 5.84793 207.698 5.43408 207.698 4.99023V3.21486C207.698 2.77102 207.618 2.35417 207.456 1.9643C207.295 1.57444 207.074 1.23256 206.794 0.941667C206.515 0.647771 206.19 0.419851 205.818 0.251911C205.447 0.0839703 205.05 0 204.624 0H195.696C195.27 0 194.87 0.0839703 194.501 0.251911C194.13 0.419851 193.804 0.65077 193.525 0.941667C193.246 1.23556 193.024 1.57444 192.863 1.9643C192.702 2.35417 192.621 2.77102 192.621 3.21486V4.99023C192.621 5.43408 192.702 5.84793 192.863 6.23479C193.024 6.62166 193.246 6.96054 193.525 7.25143C193.804 7.54233 194.13 7.77325 194.501 7.94119C194.87 8.10913 195.27 8.1931 195.696 8.1931ZM194.939 1.33453C195.175 1.22357 195.425 1.16959 195.696 1.16959H204.624C204.891 1.16959 205.145 1.22657 205.381 1.33453C205.617 1.44249 205.824 1.58944 206.003 1.77237C206.181 1.95531 206.322 2.17123 206.423 2.42014C206.527 2.66906 206.576 2.93596 206.576 3.21486V4.99023C206.576 5.27213 206.524 5.53304 206.423 5.77895C206.322 6.02487 206.181 6.24079 206.003 6.42673C205.824 6.61266 205.617 6.75961 205.381 6.86457C205.145 6.97253 204.891 7.02351 204.624 7.02351H195.696C195.428 7.02351 195.175 6.96953 194.939 6.86457C194.703 6.75961 194.495 6.61266 194.317 6.42673C194.138 6.24079 193.997 6.02487 193.896 5.77895C193.796 5.53304 193.744 5.27213 193.744 4.99023V3.21486C193.744 2.93296 193.796 2.66906 193.896 2.42014C193.997 2.17123 194.138 1.95531 194.317 1.77237C194.495 1.58944 194.703 1.44249 194.939 1.33453Z" fill="white"/>
<path id="Shape_3" fill-rule="evenodd" clip-rule="evenodd" d="M136.702 8.1931H145.629C146.056 8.1931 146.453 8.10913 146.824 7.94119C147.196 7.77325 147.521 7.54233 147.8 7.25143C148.082 6.96054 148.301 6.62166 148.462 6.23479C148.624 5.84793 148.704 5.43408 148.704 4.99023V3.21486C148.704 2.77102 148.624 2.35417 148.462 1.9643C148.301 1.57444 148.079 1.23256 147.8 0.941667C147.521 0.647771 147.196 0.419851 146.824 0.251911C146.453 0.0839703 146.056 0 145.629 0H136.702C136.276 0 135.878 0.0839703 135.507 0.251911C135.136 0.419851 134.81 0.65077 134.531 0.941667C134.249 1.23556 134.03 1.57444 133.869 1.9643C133.708 2.35417 133.627 2.77102 133.627 3.21486V4.99023C133.627 5.43408 133.708 5.84793 133.869 6.23479C134.03 6.62166 134.252 6.96054 134.531 7.25143C134.813 7.54233 135.136 7.77325 135.507 7.94119C135.878 8.10913 136.276 8.1931 136.702 8.1931ZM135.945 1.33453C136.181 1.22357 136.431 1.16959 136.702 1.16959H145.629C145.9 1.16959 146.151 1.22657 146.387 1.33453C146.623 1.44249 146.83 1.58944 147.008 1.77237C147.187 1.95531 147.328 2.17123 147.429 2.42014C147.53 2.66906 147.581 2.93596 147.581 3.21486V4.99023C147.581 5.27213 147.53 5.53304 147.429 5.77895C147.328 6.02487 147.187 6.24079 147.008 6.42673C146.83 6.61266 146.623 6.75961 146.387 6.86457C146.151 6.97253 145.897 7.02351 145.629 7.02351H136.702C136.434 7.02351 136.181 6.96953 135.945 6.86457C135.711 6.75961 135.501 6.61266 135.323 6.42673C135.144 6.24079 135.003 6.02487 134.902 5.77895C134.802 5.53304 134.75 5.27213 134.75 4.99023V3.21486C134.75 2.93296 134.802 2.66906 134.902 2.42014C135.003 2.17123 135.144 1.95531 135.323 1.77237C135.501 1.58944 135.708 1.44249 135.945 1.33453Z" fill="white"/>
<path id="Path_3" d="M329.693 21.9763C328.118 21.9763 326.639 22.2402 325.26 22.867C323.886 23.4968 322.683 24.3185 321.658 25.3891C321.102 25.9679 320.613 26.5887 320.184 27.2754C319.752 26.5917 319.263 25.9529 318.71 25.3741C317.682 24.3035 316.479 23.4998 315.105 22.87C313.726 22.2402 312.247 21.9763 310.672 21.9763H294.809V25.8749H310.672C311.72 25.8749 312.713 26.0459 313.64 26.4627C314.567 26.8826 315.376 27.4284 316.058 28.1451C316.749 28.8619 317.213 29.6896 317.61 30.6552C318.013 31.6209 318.131 32.6435 318.131 33.7352V49.2667H318.313H322.055H321.871V33.7382C321.871 32.6465 322.17 31.6119 322.573 30.6462C322.968 29.6806 323.567 28.8439 324.258 28.1271C324.943 27.4104 325.775 26.8826 326.702 26.4627C327.629 26.0429 328.645 25.8749 329.696 25.8749H345.191V21.9763H329.693V21.9763Z" fill="white"/>
<path id="Path_4" d="M34.8846 21.9763C33.3098 21.9763 31.83 22.2402 30.451 22.867C29.0777 23.4968 27.8743 24.3185 26.8494 25.3891C26.2937 25.9679 25.8043 26.5887 25.3753 27.2754C24.9435 26.5917 24.4541 25.9529 23.9013 25.3741C22.8735 24.3035 21.6701 23.4998 20.2968 22.87C18.9178 22.2402 17.438 21.9763 15.8632 21.9763H0V25.8749H15.8632C16.9111 25.8749 17.9044 26.0459 18.8314 26.4627C19.7584 26.8826 20.5674 27.4284 21.2498 28.1451C21.9407 28.8619 22.4042 29.6896 22.8015 30.6552C23.2046 31.6209 23.3226 32.6435 23.3226 33.7352V49.2667H23.504H27.2467H27.0624V33.7382C27.0624 32.6465 27.3618 31.6119 27.7649 30.6462C28.1593 29.6806 28.7581 28.8439 29.4491 28.1271C30.1343 27.4104 30.9663 26.8826 31.8934 26.4627C32.8204 26.0429 33.8367 25.8749 34.8875 25.8749H50.3822V21.9763H34.8846V21.9763Z" fill="white"/>
<path id="Path_5" d="M106.128 49.3356H63.9886L67.3311 45.428H97.9807L84.3833 28.7569C83.557 27.8212 82.5926 27.0985 81.487 26.5887C80.3873 26.0789 79.2242 25.8209 77.9948 25.8209C76.7425 25.8209 75.5765 26.0789 74.4825 26.5887C73.3971 27.0985 72.4384 27.8212 71.6121 28.7569L54.7816 49.3356H49.8672L68.7965 26.1358C69.997 24.8043 71.3933 23.7667 72.9825 23.0259C74.5717 22.2852 76.2473 21.9133 77.9948 21.9133C79.7481 21.9133 81.4179 22.2852 83.0129 23.0259C84.6021 23.7667 85.9984 24.8043 87.1989 26.1358L87.2335 26.2108L106.128 49.3356Z" fill="white"/>
<path id="Path_6" d="M116 49.3355V21.9521H119.757V45.4278H166.405V49.3355H116Z" fill="white"/>
<path id="Path_7" d="M285.922 49.3356H278.863C275.909 49.3356 273.073 48.7448 270.353 47.5603C267.641 46.3757 265.254 44.6813 263.198 42.492L249.941 28.406C249.192 27.5753 248.311 26.9306 247.295 26.4897C246.279 26.0489 245.219 25.8239 244.119 25.8239H238.413V49.3356H234.656V21.9133H244.119C245.72 21.9133 247.266 22.2372 248.74 22.888C250.217 23.5388 251.521 24.4684 252.647 25.665L265.864 39.751C267.569 41.5504 269.544 42.9479 271.801 43.9405C274.055 44.9332 276.407 45.428 278.863 45.428H282.125L282.053 21.9163H285.847L285.922 49.3356Z" fill="white"/>
</g>
</svg>

<svg width="346" height="50" fill="none" xmlns="http://www.w3.org/2000/svg"><g fill="#fff"><path d="M130.816 8.193h-11.148a3.714 3.714 0 01-1.526-.32 3.937 3.937 0 01-1.249-.876 4.086 4.086 0 01-.841-1.302 4.156 4.156 0 01-.308-1.59 4.183 4.183 0 011.149-2.902 3.937 3.937 0 011.249-.876c.478-.213.988-.32 1.526-.32h11.148v1.166h-11.148c-.388 0-.754.078-1.094.234a2.88 2.88 0 00-1.491 1.56 2.943 2.943 0 00-.219 1.139c0 .405.072.785.219 1.14a3 3 0 00.599.929c.253.264.55.474.892.624.34.153.706.228 1.094.228h11.148v1.166zm31.755 0h-11.147v-1.17h11.147c.389 0 .755-.075 1.094-.227.34-.153.637-.36.893-.624a2.97 2.97 0 00.82-2.07c0-.404-.072-.785-.219-1.14a2.879 2.879 0 00-1.494-1.56 2.59 2.59 0 00-1.094-.232h-11.147V.003h11.147a3.72 3.72 0 011.526.32c.478.214.895.508 1.25.877a4.164 4.164 0 011.148 2.903c0 .56-.103 1.091-.308 1.589a4.118 4.118 0 01-.84 1.301 3.905 3.905 0 01-1.25.876 3.675 3.675 0 01-1.526.324z"/><path fill-rule="evenodd" clip-rule="evenodd" d="M210.385 1.17h15.074V.003h-15.074V1.17zm0 7.023h1.12v-.822a2.689 2.689 0 011.583-2.477 2.44 2.44 0 011.011-.21h11.36V3.518h-11.36c-.519 0-.999.102-1.448.303-.45.204-.841.48-1.178.83a3.885 3.885 0 00-.797 1.227 3.882 3.882 0 00-.291 1.496v.819zm-14.689 0h8.928c.426 0 .826-.084 1.194-.252a3.219 3.219 0 001.638-1.706c.162-.387.242-.8.242-1.245V3.215c0-.444-.08-.86-.242-1.25a3.247 3.247 0 00-.662-1.023 3.07 3.07 0 00-.976-.69A2.858 2.858 0 00204.624 0h-8.928c-.426 0-.826.084-1.195.252a3.13 3.13 0 00-.976.69 3.3 3.3 0 00-.662 1.022c-.161.39-.242.807-.242 1.25V4.99c0 .444.081.858.242 1.245.161.387.383.726.662 1.016.279.291.605.522.976.69.369.168.769.252 1.195.252zm-.757-6.858c.236-.111.486-.165.757-.165h8.928c.267 0 .521.057.757.165a1.995 1.995 0 011.042 1.086c.104.248.153.515.153.794V4.99a2.05 2.05 0 01-.573 1.437 1.966 1.966 0 01-.622.438 1.8 1.8 0 01-.757.159h-8.928a1.83 1.83 0 01-.757-.16 1.955 1.955 0 01-.622-.437 2.047 2.047 0 01-.573-1.437V3.215c0-.282.052-.546.152-.795a2.034 2.034 0 011.043-1.085zm-58.237 6.858h8.927a2.86 2.86 0 001.195-.252 3.219 3.219 0 001.638-1.706c.162-.387.242-.8.242-1.245V3.215A3.265 3.265 0 00147.8.942a3.07 3.07 0 00-.976-.69A2.86 2.86 0 00145.629 0h-8.927c-.426 0-.824.084-1.195.252a3.13 3.13 0 00-.976.69 3.246 3.246 0 00-.662 1.022c-.161.39-.242.807-.242 1.25V4.99c0 .444.081.858.242 1.245.161.387.383.726.662 1.016.282.291.605.522.976.69.371.168.769.252 1.195.252zm-.757-6.858c.236-.111.486-.165.757-.165h8.927c.271 0 .522.057.758.165a2.03 2.03 0 011.194 1.88V4.99a2.049 2.049 0 01-1.194 1.875c-.236.108-.49.159-.758.159h-8.927a1.83 1.83 0 01-.757-.16 1.978 1.978 0 01-.622-.437 2.047 2.047 0 01-.573-1.437V3.215c0-.282.052-.546.152-.795a2.022 2.022 0 011.043-1.085z"/><path d="M329.693 21.976c-1.575 0-3.054.264-4.433.891-1.374.63-2.577 1.451-3.602 2.522a11.54 11.54 0 00-1.474 1.886 12.095 12.095 0 00-1.474-1.9c-1.028-1.072-2.231-1.875-3.605-2.505-1.379-.63-2.858-.894-4.433-.894h-15.863v3.899h15.863c1.048 0 2.041.17 2.968.588.927.42 1.736.965 2.418 1.682.691.717 1.155 1.545 1.552 2.51.403.966.521 1.989.521 3.08v15.532h3.924-.184V33.738c0-1.091.299-2.126.702-3.092.395-.965.994-1.802 1.685-2.519.685-.717 1.517-1.244 2.444-1.664.927-.42 1.943-.588 2.994-.588h15.495v-3.899h-15.498zm-294.808 0c-1.575 0-3.055.264-4.434.891-1.373.63-2.577 1.451-3.602 2.522a11.52 11.52 0 00-1.474 1.886 12.095 12.095 0 00-1.474-1.9c-1.027-1.072-2.23-1.875-3.604-2.505-1.38-.63-2.859-.894-4.434-.894H0v3.899h15.863c1.048 0 2.041.17 2.968.588.927.42 1.736.965 2.419 1.682.69.717 1.154 1.545 1.552 2.51.403.966.52 1.989.52 3.08v15.532h3.925-.185V33.738c0-1.091.3-2.126.703-3.092.394-.965.993-1.802 1.684-2.519.685-.717 1.517-1.244 2.444-1.664.927-.42 1.944-.588 2.995-.588h15.494v-3.899H34.885zm71.243 27.36h-42.14l3.343-3.908h30.65L84.383 28.757a8.678 8.678 0 00-2.896-2.168 8.204 8.204 0 00-3.492-.768 8.2 8.2 0 00-3.513.768 8.788 8.788 0 00-2.87 2.168l-16.83 20.579h-4.915l18.93-23.2a12.972 12.972 0 014.186-3.11 11.743 11.743 0 015.012-1.113c1.753 0 3.423.372 5.018 1.113a12.95 12.95 0 014.186 3.11l.035.075 18.894 23.125zm9.872 0V21.952h3.757v23.476h46.648v3.908H116zm169.922 0h-7.059c-2.954 0-5.79-.591-8.51-1.776-2.712-1.184-5.099-2.879-7.155-5.068l-13.257-14.086a7.621 7.621 0 00-2.646-1.916 7.908 7.908 0 00-3.176-.666h-5.706v23.512h-3.757V21.913h9.463c1.601 0 3.147.324 4.621.975 1.477.65 2.781 1.58 3.907 2.777l13.217 14.086a18.189 18.189 0 005.937 4.19 17.328 17.328 0 007.062 1.487h3.262l-.072-23.512h3.794l.075 27.42z"/></g></svg>
